X:662
T:Mr. Dundas MacQueen
R:Reel
B:The Athole Collection
M:C|
L:1/8
K:C Minor
G,|CDEF E/F/G Gc|BGFE D/E/F DB,|1 CDEF E/F/G Gc|BGFD C/C/C C:|2
CDEF G2 Gc|dBfd c/c/c ~c||
|:d|cdef gcec|fBdf bfdB|1 cdef gcec|dBfd c/c/c c:|2 cdef gbfd|Bdbd c/c/c c||

